X:1
T:Fair Nottamun Town
M:9/8
L:1/8
K:F
 D/2D/2 DD F| D3- D2 G/2G/2| AAG A3-| A2 A/2A/2 AGA| d3- d2 d/2d/2|\
 cdc A3-| A2 A/2A/2 AGA| d3- d2 d/2d/2| cdc A3-| A2 A AGA| cAG FDC|\
